header/setting.svg

<svg width="26" height="26" viewBox="0 0 26 26" fill="none" xmlns="http://www.w3.org/2000/svg">
<path d="M3.80117 7.60234C1.67251 7.60234 0 5.92982 0 3.80117C0 1.67251 1.67251 0 3.80117 0C5.92982 0 7.60234 1.67251 7.60234 3.80117C7.60234 5.92982 5.92982 7.60234 3.80117 7.60234ZM3.80117 1.52047C2.5848 1.52047 1.52047 2.5848 1.52047 3.80117C1.52047 5.01754 2.5848 6.08187 3.80117 6.08187C5.01754 6.08187 6.08187 5.01754 6.08187 3.80117C6.08187 2.5848 5.01754 1.52047 3.80117 1.52047Z" transform="translate(9.27344 9.27539)" fill="#726F68"/>
<path d="M14.1404 26H12.1637C11.2515 26 10.3392 25.2398 10.3392 24.1754V22.655C9.731 22.5029 9.12281 22.1988 8.51462 21.8947C8.36257 21.8947 8.21052 21.8947 8.21052 21.8947L7.1462 22.9591C6.53801 23.5673 5.32164 23.5673 4.5614 22.9591L3.04094 21.4386C2.2807 20.6784 2.2807 19.614 3.04094 18.8538L4.10526 17.7895C4.25731 17.6374 4.10526 17.4854 4.10526 17.4854C3.80117 17.0292 3.64912 16.4211 3.49708 15.9649C3.49708 15.8129 3.34503 15.8129 3.19298 15.8129H1.82456C0.912281 15.8129 -5.80012e-07 15.0526 -5.80012e-07 13.9883V12.0117C-5.80012e-07 11.0994 0.760235 10.1871 1.82456 10.1871H3.19298C3.34503 10.1871 3.34503 10.0351 3.49708 10.0351C3.64912 9.4269 3.95322 8.97076 4.10526 8.51462C4.10526 8.36257 4.10526 8.36257 4.10526 8.21052L3.04094 7.1462C2.2807 6.38597 2.2807 5.32164 3.04094 4.5614L4.5614 3.04094C5.16959 2.43275 6.38597 2.43275 7.1462 3.04094L8.21052 4.10526C8.36257 4.25731 8.36257 4.25731 8.51462 4.10526C8.97076 3.80117 9.57895 3.64912 10.0351 3.49708C10.1871 3.49708 10.1871 3.34503 10.1871 3.19298V1.82456C10.1871 0.912281 10.9474 -5.80012e-07 12.0117 -5.80012e-07H13.9883C14.9006 -5.80012e-07 15.8129 0.760235 15.8129 1.82456V3.19298C15.8129 3.34503 15.9649 3.34503 15.9649 3.49708C16.4211 3.64912 17.0292 3.95322 17.4854 4.10526C17.6374 4.10526 17.7895 4.10526 17.7895 4.10526L18.8538 3.04094C19.462 2.43275 20.6784 2.43275 21.4386 3.04094L22.9591 4.5614C23.7193 5.32164 23.7193 6.38597 22.9591 7.1462L21.8947 8.21052C21.7427 8.36257 21.8947 8.51462 21.8947 8.51462C22.1988 8.97076 22.3509 9.57895 22.5029 10.0351C22.5029 10.1871 22.655 10.1871 22.807 10.1871H24.1754C25.0877 10.1871 26 10.9474 26 12.0117V13.9883C26 14.9006 25.2398 15.8129 24.1754 15.8129H22.807C22.655 15.8129 22.655 15.9649 22.5029 15.9649C22.3509 16.5731 22.0468 17.0292 21.8947 17.4854C21.8947 17.6374 21.8947 17.6374 21.8947 17.7895L22.9591 18.8538C23.7193 19.614 23.7193 20.6784 22.9591 21.4386L21.4386 22.9591C20.8304 23.5673 19.614 23.5673 18.8538 22.9591L17.7895 21.8947C17.6374 21.7427 17.6374 21.7427 17.4854 21.8947C17.0292 22.1988 16.4211 22.3509 15.9649 22.5029C15.8129 22.5029 15.8129 22.655 15.8129 22.807V24.1754C15.8129 25.2398 15.0526 26 14.1404 26ZM8.36257 20.3743C8.66667 20.3743 8.97076 20.3743 9.27485 20.5263C9.88304 20.8304 10.6433 21.1345 11.2515 21.2865C11.5556 21.4386 11.8596 21.7427 11.8596 22.0468V24.1754C11.8596 24.3275 12.0117 24.4795 12.1637 24.4795H14.1404C14.2924 24.4795 14.4444 24.3275 14.4444 24.1754V22.807C14.4444 22.0468 14.9006 21.2865 15.6608 21.1345C16.117 20.9825 16.5731 20.8304 17.0292 20.5263C17.7895 20.2222 18.5497 20.2222 19.1579 20.8304L20.2222 21.8947C20.3743 22.0468 20.5263 22.0468 20.5263 21.8947L22.0468 20.3743C22.1988 20.2222 22.1988 20.0702 22.0468 20.0702L20.9825 19.0058C20.3743 18.3977 20.3743 17.6374 20.6784 16.8772C20.8304 16.4211 21.1345 15.9649 21.2865 15.5088C21.5906 14.7485 22.1988 14.2924 22.9591 14.2924H24.3275C24.4795 14.2924 24.6316 14.1404 24.6316 13.9883V12.0117C24.6316 11.8596 24.4795 11.7076 24.3275 11.7076H22.9591C22.1988 11.7076 21.4386 11.2515 21.2865 10.4912C21.1345 10.0351 20.9825 9.57895 20.6784 9.12281C20.3743 8.36257 20.3743 7.60234 20.9825 6.99415L22.0468 5.92982C22.1988 5.77778 22.1988 5.62573 22.0468 5.62573L20.5263 4.10526C20.3743 3.95322 20.2222 3.95322 20.2222 4.10526L19.1579 5.16959C18.5497 5.62573 17.7895 5.77778 17.0292 5.47368C16.5731 5.32164 16.117 5.01754 15.6608 4.8655C14.9006 4.5614 14.4444 3.95322 14.4444 3.19298V1.82456C14.4444 1.67252 14.2924 1.52047 14.1404 1.52047H12.1637C12.0117 1.52047 11.8596 1.67252 11.8596 1.82456V3.19298C11.8596 3.95322 11.4035 4.71345 10.6433 4.8655C10.1871 5.01754 9.73099 5.16959 9.27485 5.47368C8.51462 5.77778 7.75439 5.77778 7.1462 5.16959L6.08187 4.10526C5.92982 3.95322 5.77778 3.95322 5.77778 4.10526L4.25731 5.62573C4.10526 5.77778 4.10526 5.92982 4.25731 5.92982L5.32164 6.99415C5.92982 7.60234 5.92982 8.36257 5.62573 9.12281C5.47368 9.57895 5.16959 10.0351 5.01754 10.4912C4.71345 11.2515 4.10526 11.7076 3.34503 11.7076H1.97661C1.82456 11.7076 1.67251 11.8596 1.67251 12.0117V13.9883C1.67251 14.1404 1.82456 14.2924 1.97661 14.2924H3.34503C4.10526 14.2924 4.8655 14.7485 5.01754 15.5088C5.16959 15.9649 5.32164 16.4211 5.62573 16.8772C5.92982 17.6374 5.92982 18.3977 5.32164 19.0058L4.25731 20.0702C4.10526 20.2222 4.10526 20.3743 4.25731 20.3743L5.77778 21.8947C5.92982 22.0468 6.08187 22.0468 6.08187 21.8947L7.1462 20.8304C7.45029 20.5263 7.90643 20.3743 8.36257 20.3743Z" fill="#726F68"/>
</svg>

<svg width="26" height="26" fill="none" xmlns="http://www.w3.org/2000/svg"><path d="M13.07 16.88a3.76 3.76 0 0 1-3.8-3.8c0-2.13 1.68-3.8 3.8-3.8 2.13 0 3.8 1.67 3.8 3.8s-1.67 3.8-3.8 3.8zm0-6.08a2.34 2.34 0 0 0-2.28 2.28 2.34 2.34 0 0 0 2.28 2.28 2.34 2.34 0 0 0 2.29-2.28 2.34 2.34 0 0 0-2.29-2.28z" fill="#726F68"/><path d="M14.14 26h-1.98c-.9 0-1.82-.76-1.82-1.82v-1.52c-.6-.16-1.22-.46-1.83-.77h-.3l-1.06 1.07c-.61.6-1.83.6-2.59 0l-1.52-1.52a1.75 1.75 0 0 1 0-2.59l1.07-1.06c.15-.15 0-.3 0-.3-.3-.46-.46-1.07-.61-1.53 0-.15-.15-.15-.3-.15H1.81C.92 15.81 0 15.05 0 14V12c0-.91.76-1.82 1.82-1.82H3.2c.16 0 .16-.15.3-.15.16-.61.46-1.07.62-1.53v-.3L3.04 7.15a1.75 1.75 0 0 1 0-2.59l1.52-1.52c.61-.6 1.83-.6 2.59 0L8.2 4.11c.15.15.15.15.3 0 .46-.3 1.07-.46 1.53-.61.15 0 .15-.15.15-.3V1.81C10.19.92 10.95 0 12 0H14c.91 0 1.82.76 1.82 1.82V3.2c0 .16.15.16.15.3.46.16 1.07.46 1.53.62h.3l1.06-1.07c.61-.6 1.83-.6 2.59 0l1.52 1.52c.76.76.76 1.83 0 2.59L21.89 8.2c-.15.15 0 .3 0 .3.3.46.46 1.07.61 1.53 0 .15.16.15.3.15h1.38c.9 0 1.82.76 1.82 1.82V14c0 .91-.76 1.82-1.82 1.82H22.8c-.15 0-.15.15-.3.15-.16.61-.46 1.07-.62 1.53v.3l1.07 1.06c.76.76.76 1.83 0 2.59l-1.52 1.52c-.61.6-1.83.6-2.59 0l-1.06-1.07c-.15-.15-.15-.15-.3 0-.46.3-1.07.46-1.53.61-.15 0-.15.16-.15.3v1.38c0 1.06-.76 1.82-1.67 1.82zm-5.78-5.63c.3 0 .61 0 .91.16.61.3 1.37.6 1.98.76.3.15.61.45.61.76v2.13c0 .15.15.3.3.3h1.98c.15 0 .3-.15.3-.3V22.8c0-.76.46-1.52 1.22-1.68.46-.15.91-.3 1.37-.6.76-.3 1.52-.3 2.13.3l1.06 1.06c.15.16.3.16.3 0l1.53-1.52c.15-.15.15-.3 0-.3l-1.07-1.06c-.6-.61-.6-1.37-.3-2.13.15-.46.45-.92.6-1.37.31-.76.92-1.22 1.68-1.22h1.37c.15 0 .3-.15.3-.3V12c0-.15-.15-.3-.3-.3h-1.37c-.76 0-1.52-.46-1.67-1.22-.16-.45-.3-.91-.61-1.37-.3-.76-.3-1.52.3-2.13l1.07-1.06c.15-.15.15-.3 0-.3L20.53 4.1c-.16-.16-.3-.16-.3 0l-1.07 1.06c-.61.46-1.37.6-2.13.3-.46-.15-.91-.45-1.37-.6-.76-.3-1.22-.92-1.22-1.68V1.82c0-.15-.15-.3-.3-.3h-1.98c-.15 0-.3.15-.3.3V3.2c0 .76-.46 1.52-1.22 1.68-.45.15-.9.3-1.37.6-.76.3-1.52.3-2.12-.3L6.08 4.11c-.15-.16-.3-.16-.3 0L4.26 5.63c-.15.15-.15.3 0 .3l1.06 1.06c.61.61.61 1.37.3 2.13-.15.46-.45.92-.6 1.37-.3.76-.91 1.22-1.67 1.22H1.98c-.16 0-.3.15-.3.3V14c0 .15.14.3.3.3h1.37c.76 0 1.52.46 1.67 1.22.15.45.3.91.6 1.37.31.76.31 1.52-.3 2.13l-1.06 1.06c-.15.15-.15.3 0 .3l1.52 1.52c.15.16.3.16.3 0l1.07-1.06c.3-.3.76-.46 1.21-.46z" fill="#726F68"/></svg>
